public/Layer1.svg

<?xml version="1.0" encoding="UTF-8" standalone="no"?>
<svg
   id="visual"
   viewBox="0 0 900 600"
   width="900"
   height="600"
   version="1.1"
   sodipodi:docname="Layer1.svg"
   inkscape:version="1.2.2 (b0a8486541, 2022-12-01)"
   xmlns:inkscape="http://www.inkscape.org/namespaces/inkscape"
   xmlns:sodipodi="http://sodipodi.sourceforge.net/DTD/sodipodi-0.dtd"
   xmlns="http://www.w3.org/2000/svg"
   xmlns:svg="http://www.w3.org/2000/svg">
  <defs
     id="defs277" />
  <sodipodi:namedview
     id="namedview275"
     pagecolor="#ffffff"
     bordercolor="#000000"
     borderopacity="0.25"
     inkscape:showpageshadow="2"
     inkscape:pageopacity="0.0"
     inkscape:pagecheckerboard="0"
     inkscape:deskcolor="#d1d1d1"
     showgrid="false"
     inkscape:zoom="1.7116667"
     inkscape:cx="449.85393"
     inkscape:cy="302.3369"
     inkscape:window-width="3840"
     inkscape:window-height="1965"
     inkscape:window-x="0"
     inkscape:window-y="0"
     inkscape:window-maximized="1"
     inkscape:current-layer="visual" />
  <path
     d="M -28.369259,327.07307 7.3012322,310.67172 c 38.1557488,-17.54407 62.6723528,18.87324 108.2914778,12.06334 45.72572,-6.80989 81.62339,21.70643 127.34911,18.02909 45.61913,-3.54115 91.45144,-17.70574 137.07057,-17.43334 45.72571,0.2724 91.13168,14.70938 136.85739,15.25417 45.61914,0.4086 91.45144,-13.2112 137.07057,-13.61979 45.72573,-0.5448 91.13168,12.25781 136.8574,8.98906 45.61914,-3.13255 91.45144,-22.20027 114.36759,-31.73412 l 22.91615,-9.53386 V 600.49366 H 905.16534 790.79775 653.94035 516.86978 380.01239 242.94182 106.08442 -8.2831646 -31.199317 Z"
     fill="#fa7268"
     id="path264"
     style="stroke-width:1.20486"
     sodipodi:nodetypes="csccccccscccccccccccc" />
</svg>

<?xml version="1.0" encoding="UTF-8" standalone="no"?>
<svg
   id="visual"
   viewBox="0 0 900 600"
   width="900"
   height="600"
   version="1.1"
   sodipodi:docname="Layer1.svg"
   inkscape:version="1.2.2 (b0a8486541, 2022-12-01)"
   xmlns:inkscape="http://www.inkscape.org/namespaces/inkscape"
   xmlns:sodipodi="http://sodipodi.sourceforge.net/DTD/sodipodi-0.dtd"
   xmlns="http://www.w3.org/2000/svg"
   xmlns:svg="http://www.w3.org/2000/svg">
  <defs
     id="defs277" />
  <sodipodi:namedview
     id="namedview275"
     pagecolor="#ffffff"
     bordercolor="#000000"
     borderopacity="0.25"
     inkscape:showpageshadow="2"
     inkscape:pageopacity="0.0"
     inkscape:pagecheckerboard="0"
     inkscape:deskcolor="#d1d1d1"
     showgrid="false"
     inkscape:zoom="1.7116667"
     inkscape:cx="449.85393"
     inkscape:cy="301.16845"
     inkscape:window-width="3840"
     inkscape:window-height="1989"
     inkscape:window-x="0"
     inkscape:window-y="0"
     inkscape:window-maximized="1"
     inkscape:current-layer="visual" />
  <path
     d="M -31.199317,392.11078 -8.2831646,381.89593 C 14.632989,371.68109 60.465294,351.25139 106.08442,344.44149 c 45.72572,-6.80989 91.13168,0 136.8574,-3.67734 45.61913,-3.54115 91.45144,-17.70574 137.07057,-17.43334 45.72571,0.2724 91.13168,14.70938 136.85739,15.25417 45.61914,0.4086 91.45144,-13.2112 137.07057,-13.61979 45.72573,-0.5448 91.13168,12.25781 136.8574,8.98906 45.61914,-3.13255 91.45144,-22.20027 114.36759,-31.73412 l 22.91615,-9.53386 v 307.80739 h -22.91615 c -22.91615,0 -68.74845,0 -114.36759,0 -45.72572,0 -91.13167,0 -136.8574,0 -45.61913,0 -91.45143,0 -137.07057,0 -45.72571,0 -91.13168,0 -136.85739,0 -45.61913,0 -91.45144,0 -137.07057,0 -45.72572,0 -91.13168,0 -136.8574,0 -45.619126,0 -91.451431,0 -114.3675846,0 H -31.199317 Z"
     fill="#fa7268"
     id="path264"
     style="stroke-width:1.20486" />
</svg>
